img/svg/facebook.svg

<svg width="56" height="56" viewBox="0 0 56 56" fill="inherit" xmlns="http://www.w3.org/2000/svg">
    <g>
        <path
            d="M56 26.8278C56 27.5957 56 28.3716 56 29.1395C55.848 30.3394 55.744 31.5472 55.536 32.7311C54.296 39.8261 50.808 45.5934 45.168 50.0488C41.288 53.1124 36.864 54.9841 31.952 55.664C31.024 55.792 30.088 55.888 29.152 56C28.384 56 27.608 56 26.84 56C25.752 55.872 24.656 55.8 23.576 55.616C16.408 54.3922 10.528 50.9527 6 45.2494C2.92 41.3539 1.032 36.9225 0.336 31.9952C0.208 31.0833 0.112 30.1714 0 29.2595C0 28.4116 0 27.5637 0 26.7158C0.04 26.5079 0.08 26.3079 0.112 26.0999C0.376 24.4282 0.504 22.7244 0.912 21.1006C4.48 7.04643 18.112 -1.94439 32.392 0.359312C39.64 1.52716 45.552 5.07069 50.088 10.8459C53.12 14.7094 54.976 19.0928 55.656 23.9642C55.792 24.9161 55.888 25.876 56 26.8278ZM35.952 17.3971C35.952 15.5173 35.952 13.6696 35.952 11.7738C35.736 11.7738 35.544 11.7898 35.352 11.7738C33.344 11.5978 31.336 11.4858 29.344 11.9018C26.712 12.4617 24.816 13.9175 24.296 16.6772C24.064 17.925 24.112 19.2288 24.056 20.5007C24.024 21.2846 24.048 22.0685 24.048 22.9083C22.688 22.9083 21.416 22.9083 20.144 22.9083C20.144 24.7801 20.144 26.5799 20.144 28.4516C21.456 28.4516 22.736 28.4516 24.072 28.4516C24.072 34.5388 24.072 40.562 24.072 46.5772C26.288 46.5772 28.44 46.5772 30.656 46.5772C30.656 40.522 30.656 34.4988 30.656 28.4356C32.104 28.4356 33.48 28.4356 34.896 28.4356C35.216 26.5799 35.536 24.7641 35.864 22.8764C34.104 22.8764 32.392 22.8764 30.648 22.8764C30.648 21.9005 30.56 20.9646 30.672 20.0607C30.824 18.7329 31.28 17.661 33.224 17.5651C34.136 17.5251 35.032 17.4531 35.952 17.3971Z"
            fill="inherit" />
    </g>
</svg>

<svg width="56" height="56" viewBox="0 0 56 56" fill="inherit" xmlns="http://www.w3.org/2000/svg"><path d="M56 26.828v2.312c-.152 1.2-.256 2.407-.464 3.591-1.24 7.095-4.728 12.862-10.368 17.318-3.88 3.063-8.304 4.935-13.216 5.615-.928.128-1.864.224-2.8.336H26.84c-1.088-.128-2.184-.2-3.264-.384C16.408 54.392 10.528 50.953 6 45.249 2.92 41.354 1.032 36.922.336 31.995.208 31.083.112 30.171 0 29.26v-2.543c.04-.208.08-.408.112-.616.264-1.672.392-3.376.8-5C4.48 7.047 18.112-1.943 32.392.36c7.248 1.167 13.16 4.71 17.696 10.486 3.032 3.863 4.888 8.247 5.568 13.118.136.952.232 1.912.344 2.864zm-20.048-9.43v-5.624c-.216 0-.408.016-.6 0-2.008-.176-4.016-.288-6.008.128-2.632.56-4.528 2.016-5.048 4.775-.232 1.248-.184 2.552-.24 3.824-.032.784-.008 1.567-.008 2.407h-3.904v5.544h3.928v18.125h6.584V28.436h4.24c.32-1.856.64-3.672.968-5.56h-5.216c0-.976-.088-1.911.024-2.815.152-1.328.608-2.4 2.552-2.496.912-.04 1.808-.112 2.728-.168z"/></svg>
